X:91
T:Polska fr J\"amtland
R:Polska
O:Sweden
M:3/4
K:GDor
A|\
B>d (3cAc (3BAG|G>g (3^faf d>A |\
B>d (3cAc (3BAG|G<F D3A|B>A G2d2|(3^cAc d3A|
B>d (3cAc (3BAG|G<^F G4 :: g|\
(3^faf d>f d>g|(3^faf d>f d>f|
ga b2ba|(3a^fa g3g|\
(3^faf d>f d>d|(3^cAc d3A|\
B>d (3cAc (3BAG|G<^F G3 :|
